static/img/logo-lavinmq-white.svg

<svg fill="none" version="1.1" viewBox="0 0 394 80" xmlns="http://www.w3.org/2000/svg">
  <g clip-path="url(#k)">
    <path d="m383.93 57.61 4.49 4.75-5.94 5.27c-.388.3418-.893.5203-1.409.4979-.517-.0224-1.004-.2438-1.361-.6179l-3.48-3.68c-3.277 1.6078-6.88 2.4425-10.53 2.44-5.264-.0299-10.362-1.8461-14.459-5.1512s-6.951-7.9033-8.094-13.042-.508-10.513 1.802-15.243c2.309-4.7304 6.156-8.5365 10.911-10.795 4.755-2.2587 10.136-2.8363 15.262-1.6381 5.126 1.1981 9.693 4.1011 12.954 8.2335s5.022 9.2496 4.996 14.514c-.027 5.264-1.84 10.363-5.142 14.462zm-15.09-1.67-6.48-6.87 5.95-5.28c.388-.3346.889-.5077 1.401-.4835s.994.2438 1.349.6135l5.87 6.24c1.239-2.2178 1.88-4.7197 1.86-7.26 0-8-5.77-13.35-13.09-13.35s-13.1 5.33-13.1 13.35 5.78 13.36 13.1 13.36c1.054-.0091 2.106-.1162 3.14-.32z" fill="#47B16F"/>
    <path d="m336.55 65.38h-10.27v-26.14l-11.28 18.58c-.09.1522-.219.2778-.374.3639-.154.0861-.329.1296-.506.1261-.177.0035-.352-.04-.506-.1261-.155-.0861-.284-.2117-.374-.3639l-11.36-18.58v24.16c0 .2626-.052.5227-.152.7654-.101.2426-.248.4631-.434.6488-.185.1857-.406.333-.649.4335-.242.1006-.502.1523-.765.1523h-8.3v-44.97h10.27l12.2 20 12.2-20h10.27l.03 44.95z" fill="#47B16F"/>
    <g fill="#fff">
      <path d="m283 20.43v44.95h-7.71l-17.29-24.38v22.37c0 .2626-.052.5227-.152.7654-.101.2426-.248.4631-.434.6488s-.406.333-.649.4336c-.242.1005-.502.1522-.765.1522h-8.27v-44.94h7.7l16.43 23.12c.061.0875.149.1532.25.1874s.21.0352.312.0028.19-.0965.253-.1829c.062-.0864.096-.1906.095-.2973v-22.83h10.23z"/>
      <path d="m238.67 65.38v-44.95h-10.28v44.95h10.28z"/>
      <path d="m180.09 20.43h11.23l9.95 33.07 10-33.07h11.19l-14.19 43.57c-.131.401-.385.7504-.726.9982s-.752.3815-1.174.3818h-11.64l-14.64-44.95z"/>
      <path d="m173.18 58.31h-16.72l-1.78 5.69c-.128.4063-.382.7612-.726 1.0131-.343.2518-.758.3873-1.184.3869h-9.77l15.28-44.95h13.1l15.28 44.93h-11.2l-2.28-7.07zm-3.09-9.63-5.26-16.5-5.06 15.82c-.024.0751-.029.1548-.016.2325.013.0776.044.1512.091.2145.047.0634.108.1148.178.1501.07.0352.148.0534.227.0529l9.84.03z"/>
      <path d="M137.32 55.49V65.38H111V20.43H121.27V55.49H137.32Z"/>
    </g>
    <path d="m81 40c-.0061-7.8426-2.3176-15.51-6.6469-22.05-4.3294-6.5393-10.486-11.662-17.703-14.73-7.2175-3.0684-15.178-3.9475-22.891-2.5278-7.7131 1.4197-14.839 5.0754-20.491 10.512-5.6519 5.4372-9.5808 12.416-11.298 20.068-1.7172 7.6523-1.1471 15.641 1.6396 22.972 2.7867 7.3308 7.6669 13.681 14.034 18.26 6.3668 4.5793 13.939 7.1859 21.776 7.4957h41.58v-40z" fill="url(#j)"/>
    <path d="m81 40c-.0061-7.8426-2.3176-15.51-6.6469-22.05-4.3294-6.5393-10.486-11.662-17.703-14.73-7.2175-3.0684-15.178-3.9475-22.891-2.5278-7.7131 1.4197-14.839 5.0754-20.491 10.512-5.6519 5.4372-9.5808 12.416-11.298 20.068-1.7172 7.6523-1.1471 15.641 1.6396 22.972 2.7867 7.3308 7.6669 13.681 14.034 18.26 6.3668 4.5793 13.939 7.1859 21.776 7.4957h41.58v-40z" fill="url(#i)" opacity=".5"/>
    <path d="m81 40c-.0061-7.8426-2.3176-15.51-6.6469-22.05-4.3294-6.5393-10.486-11.662-17.703-14.73-7.2175-3.0684-15.178-3.9475-22.891-2.5278-7.7131 1.4197-14.839 5.0754-20.491 10.512-5.6519 5.4372-9.5808 12.416-11.298 20.068-1.7172 7.6523-1.1471 15.641 1.6396 22.972 2.7867 7.3308 7.6669 13.681 14.034 18.26 6.3668 4.5793 13.939 7.1859 21.776 7.4957h41.58v-40z" fill="url(#h)" opacity=".5"/>
    <path d="M51.97 20.28L33.1 38.97L74.52 80H81V65.38V49.04L51.97 20.28Z" fill="url(#g)"/>
    <path d="m52 20.28-18.9 18.72 21 20.81-.93-2.1c-.7809-1.8019-1.1793-3.7462-1.17-5.71v-31.72z" fill="url(#f)" style="mix-blend-mode:soft-light"/>
    <g opacity=".47" style="mix-blend-mode:soft-light">
      <path d="m81 40c-.0061-7.8426-2.3176-15.51-6.6469-22.05-4.3294-6.5393-10.486-11.662-17.703-14.73-7.2175-3.0684-15.178-3.9475-22.891-2.5278-7.7131 1.4197-14.839 5.0754-20.491 10.512-5.6519 5.4372-9.5808 12.416-11.298 20.068-1.7172 7.6523-1.1471 15.641 1.6396 22.972 2.7867 7.3308 7.6669 13.681 14.034 18.26 6.3668 4.5793 13.939 7.1859 21.776 7.4957h41.58v-40z" fill="#4BBA77"/>
    </g>
    <path d="M51.97 20.28L33.1 38.97L74.52 80H81V65.38V49.04L51.97 20.28Z" fill="url(#e)"/>
    <path d="m3.05 52.63c2.5613 7.7184 7.4144 14.473 13.912 19.363 6.4979 4.89 14.332 7.6832 22.458 8.0073h35.1l-49.52-49.09-21.95 21.72z" fill="url(#d)"/>
    <path d="m4.1 55.42c.37.89.77 1.77 1.21 2.62v.05c.44.87.91 1.71 1.41 2.54 2.5258 4.1615 5.7812 7.8336 9.61 10.84 3.6025 2.8168 7.6613 4.9951 12 6.44l-1.58-2.42c-1.1426-1.7482-1.7508-3.7916-1.75-5.88v-38.7l-21.95 21.72c.30666.9333.64 1.8433 1 2.73l.05.06z" fill="url(#c)"/>
    <path d="m52 20.28v17.56c-4e-4.5278.1036 1.0505.3062 1.5379.2025.4875.4995.93.8738 1.3021l27.82 27.59v-19.27l-29-28.72z" fill="url(#b)"/>
    <path d="m25 30.91v17.56c-.0017.5295.1017 1.0541.3042 1.5433.2026.4892.5003.9334.8758 1.3067l26.1 25.93c1.7869 1.7712 4.204 2.7604 6.72 2.75h15.52l-49.52-49.09z" fill="url(#a)"/>
  </g>
  <defs>
    <radialGradient id="j" cx="0" cy="0" r="1" gradientTransform="translate(41 40) scale(40)" gradientUnits="userSpaceOnUse">
      <stop stop-color="#F2F4F5" offset="0"/>
      <stop stop-color="#ECEFF0" offset=".2"/>
      <stop stop-color="#DBE1E4" offset=".47"/>
      <stop stop-color="#BECACF" offset=".78"/>
      <stop stop-color="#A6B7BD" offset="1"/>
    </radialGradient>
    <radialGradient id="i" cx="0" cy="0" r="1" gradientTransform="translate(80.83 49.17) scale(40.25)" gradientUnits="userSpaceOnUse">
      <stop stop-color="#56647C" offset="0"/>
      <stop stop-color="#56647C" stop-opacity="0" offset="1"/>
    </radialGradient>
    <radialGradient id="h" cx="0" cy="0" r="1" gradientTransform="translate(147.4 4118.4) scale(3220 3218.7)" gradientUnits="userSpaceOnUse">
      <stop stop-color="#56647C" offset="0"/>
      <stop stop-color="#56647C" stop-opacity="0" offset="1"/>
    </radialGradient>
    <linearGradient id="g" x1="57.05" x2="57.05" y1="80" y2="20.28" gradientUnits="userSpaceOnUse">
      <stop stop-color="#fff" offset=".16"/>
      <stop stop-color="#8BA9B3" offset="1"/>
    </linearGradient>
    <linearGradient id="f" x1="33.1" x2="54.1" y1="40.03" y2="40.03" gradientUnits="userSpaceOnUse">
      <stop stop-color="#010101" stop-opacity="0" offset="0"/>
      <stop stop-color="#010101" offset="1"/>
    </linearGradient>
    <linearGradient id="e" x1="57.05" x2="57.05" y1="80" y2="20.28" gradientUnits="userSpaceOnUse">
      <stop stop-color="#fff" offset="0"/>
      <stop stop-color="#fff" stop-opacity="0" offset=".51"/>
    </linearGradient>
    <linearGradient id="d" x1="38.78" x2="38.78" y1="80" y2="30.91" gradientUnits="userSpaceOnUse">
      <stop stop-color="#4CBA74" offset=".01"/>
      <stop stop-color="#1A884F" offset="1"/>
    </linearGradient>
    <linearGradient id="c" x1="3.05" x2="28.31" y1="54.42" y2="54.42" gradientUnits="userSpaceOnUse">
      <stop stop-color="#1A884F" offset="0"/>
      <stop stop-color="#22A660" offset="1"/>
    </linearGradient>
    <linearGradient id="b" x1="51.97" x2="81" y1="44.27" y2="44.27" gradientUnits="userSpaceOnUse">
      <stop stop-color="#fff" offset="0"/>
      <stop stop-color="#fff" stop-opacity="0" offset="1"/>
    </linearGradient>
    <linearGradient id="a" x1="1212" x2="3665.7" y1="2753.4" y2="2753.4" gradientUnits="userSpaceOnUse">
      <stop stop-color="#fff" offset="0"/>
      <stop stop-color="#fff" stop-opacity="0" offset="1"/>
    </linearGradient>
    <clipPath id="k">
      <rect width="394" height="80" fill="#fff"/>
    </clipPath>
  </defs>
</svg>

<svg width="394" height="80" viewBox="0 0 394 80" fill="none" xmlns="http://www.w3.org/2000/svg">
<g clip-path="url(#clip0_415_3)">
<path d="M383.93 57.61L388.42 62.36L382.48 67.63C382.092 67.9718 381.587 68.1503 381.071 68.1279C380.554 68.1055 380.067 67.8841 379.71 67.51L376.23 63.83C372.953 65.4378 369.35 66.2725 365.7 66.27C360.436 66.2401 355.338 64.4239 351.241 61.1188C347.144 57.8137 344.29 53.2155 343.147 48.077C342.004 42.9385 342.639 37.5642 344.949 32.8338C347.258 28.1034 351.105 24.2973 355.86 22.0385C360.615 19.7798 365.996 19.2022 371.122 20.4004C376.248 21.5985 380.815 24.5015 384.076 28.6339C387.337 32.7663 389.098 37.8835 389.072 43.1475C389.045 48.4115 387.232 53.5106 383.93 57.61ZM368.84 55.94L362.36 49.07L368.31 43.79C368.698 43.4554 369.199 43.2823 369.711 43.3065C370.223 43.3307 370.705 43.5503 371.06 43.92L376.93 50.16C378.169 47.9422 378.81 45.4403 378.79 42.9C378.79 34.9 373.02 29.55 365.7 29.55C358.38 29.55 352.6 34.88 352.6 42.9C352.6 50.92 358.38 56.26 365.7 56.26C366.754 56.2509 367.806 56.1438 368.84 55.94Z" fill="#47B16F"/>
<path d="M336.55 65.38H326.28V39.24L315 57.82C314.91 57.9722 314.781 58.0978 314.626 58.1839C314.472 58.27 314.297 58.3135 314.12 58.31C313.943 58.3135 313.768 58.27 313.614 58.1839C313.459 58.0978 313.33 57.9722 313.24 57.82L301.88 39.24V63.4C301.88 63.6626 301.828 63.9227 301.728 64.1654C301.627 64.408 301.48 64.6285 301.294 64.8142C301.109 64.9999 300.888 65.1472 300.645 65.2477C300.403 65.3483 300.143 65.4 299.88 65.4H291.58V20.43H301.85L314.05 40.43L326.25 20.43H336.52L336.55 65.38Z" fill="#47B16F"/>
<path d="M283 20.43V65.38H275.29L258 41V63.37C258 63.6326 257.948 63.8927 257.848 64.1354C257.747 64.378 257.6 64.5985 257.414 64.7842C257.228 64.9699 257.008 65.1172 256.765 65.2178C256.523 65.3183 256.263 65.37 256 65.37H247.73V20.43H255.43L271.86 43.55C271.921 43.6375 272.009 43.7032 272.11 43.7374C272.211 43.7716 272.32 43.7726 272.422 43.7402C272.524 43.7078 272.612 43.6437 272.675 43.5573C272.737 43.4709 272.771 43.3667 272.77 43.26V20.43H283Z" fill="white"/>
<path d="M238.67 65.38V20.43H228.39V65.38H238.67Z" fill="white"/>
<path d="M180.09 20.43H191.32L201.27 53.5L211.27 20.43H222.46L208.27 64C208.139 64.401 207.885 64.7504 207.544 64.9982C207.203 65.246 206.792 65.3797 206.37 65.38H194.73L180.09 20.43Z" fill="white"/>
<path d="M173.18 58.31H156.46L154.68 64C154.552 64.4063 154.298 64.7612 153.954 65.0131C153.611 65.2649 153.196 65.4004 152.77 65.4H143L158.28 20.45H171.38L186.66 65.38H175.46L173.18 58.31ZM170.09 48.68L164.83 32.18L159.77 48C159.746 48.0751 159.741 48.1548 159.754 48.2325C159.767 48.3101 159.798 48.3837 159.845 48.447C159.892 48.5104 159.953 48.5618 160.023 48.5971C160.093 48.6323 160.171 48.6505 160.25 48.65L170.09 48.68Z" fill="white"/>
<path d="M137.32 55.49V65.38H111V20.43H121.27V55.49H137.32Z" fill="white"/>
<path d="M81 40C80.9939 32.1574 78.6824 24.4895 74.3531 17.9501C70.0237 11.4108 63.8675 6.28831 56.6501 3.21986C49.4326 0.151417 41.4724 -0.72764 33.7593 0.692014C26.0462 2.11167 18.9207 5.76739 13.2687 11.2045C7.61681 16.6417 3.68792 23.6204 1.97068 31.2727C0.253436 38.925 0.823609 46.9133 3.61029 54.2442C6.39697 61.575 11.2772 67.925 17.6441 72.5043C24.0109 77.0836 31.5835 79.6902 39.42 80H81V40Z" fill="url(#paint0_radial_415_3)"/>
<path opacity="0.5" d="M81 40C80.9939 32.1574 78.6824 24.4895 74.3531 17.9501C70.0237 11.4108 63.8675 6.28831 56.6501 3.21986C49.4326 0.151417 41.4724 -0.72764 33.7593 0.692014C26.0462 2.11167 18.9207 5.76739 13.2687 11.2045C7.61681 16.6417 3.68792 23.6204 1.97068 31.2727C0.253436 38.925 0.823609 46.9133 3.61029 54.2442C6.39697 61.575 11.2772 67.925 17.6441 72.5043C24.0109 77.0836 31.5835 79.6902 39.42 80H81V40Z" fill="url(#paint1_radial_415_3)"/>
<path opacity="0.5" d="M81 40C80.9939 32.1574 78.6824 24.4895 74.3531 17.9501C70.0237 11.4108 63.8675 6.28831 56.6501 3.21986C49.4326 0.151417 41.4724 -0.72764 33.7593 0.692014C26.0462 2.11167 18.9207 5.76739 13.2687 11.2045C7.61681 16.6417 3.68792 23.6204 1.97068 31.2727C0.253436 38.925 0.823609 46.9133 3.61029 54.2442C6.39697 61.575 11.2772 67.925 17.6441 72.5043C24.0109 77.0836 31.5835 79.6902 39.42 80H81V40Z" fill="url(#paint2_radial_415_3)"/>
<path d="M51.97 20.28L33.1 38.97L74.52 80H81V65.38V49.04L51.97 20.28Z" fill="url(#paint3_linear_415_3)"/>
<path style="mix-blend-mode:soft-light" d="M52 20.28L33.1 39L54.1 59.81L53.17 57.71C52.3891 55.9081 51.9907 53.9638 52 52V20.28Z" fill="url(#paint4_linear_415_3)"/>
<g style="mix-blend-mode:soft-light" opacity="0.47">
<path d="M81 40C80.9939 32.1574 78.6824 24.4895 74.3531 17.9501C70.0237 11.4108 63.8675 6.28831 56.6501 3.21986C49.4326 0.151417 41.4724 -0.72764 33.7593 0.692014C26.0462 2.11167 18.9207 5.76739 13.2687 11.2045C7.61681 16.6417 3.68792 23.6204 1.97068 31.2727C0.253436 38.925 0.823609 46.9133 3.61029 54.2442C6.39697 61.575 11.2772 67.925 17.6441 72.5043C24.0109 77.0836 31.5835 79.6902 39.42 80H81V40Z" fill="#4BBA77"/>
</g>
<path d="M51.97 20.28L33.1 38.97L74.52 80H81V65.38V49.04L51.97 20.28Z" fill="url(#paint5_linear_415_3)"/>
<path d="M3.05 52.63C5.6113 60.3484 10.4644 67.1028 16.9623 71.9927C23.4602 76.8827 31.2942 79.6759 39.42 80H74.52L25 30.91L3.05 52.63Z" fill="url(#paint6_linear_415_3)"/>
<path d="M4.1 55.42C4.47 56.31 4.87 57.19 5.31 58.04C5.31 58.04 5.31 58.04 5.31 58.09C5.75 58.96 6.22 59.8 6.72 60.63C9.24582 64.7915 12.5012 68.4636 16.33 71.47C19.9325 74.2868 23.9913 76.4651 28.33 77.91L26.75 75.49C25.6074 73.7418 24.9992 71.6984 25 69.61V30.91L3.05 52.63C3.35666 53.5633 3.69 54.4733 4.05 55.36L4.1 55.42Z" fill="url(#paint7_linear_415_3)"/>
<path d="M52 20.28V37.84C51.9996 38.3678 52.1036 38.8905 52.3062 39.3779C52.5087 39.8654 52.8057 40.3079 53.18 40.68L81 68.27V49L52 20.28Z" fill="url(#paint8_linear_415_3)"/>
<path d="M25 30.91V48.47C24.9983 48.9995 25.1017 49.5241 25.3042 50.0133C25.5068 50.5025 25.8045 50.9467 26.18 51.32L52.28 77.25C54.0669 79.0212 56.484 80.0104 59 80H74.52L25 30.91Z" fill="url(#paint9_linear_415_3)"/>
</g>
<defs>
<radialGradient id="paint0_radial_415_3" cx="0" cy="0" r="1" gradientUnits="userSpaceOnUse" gradientTransform="translate(41 40) scale(40 40)">
<stop stop-color="#F2F4F5"/>
<stop offset="0.2" stop-color="#ECEFF0"/>
<stop offset="0.47" stop-color="#DBE1E4"/>
<stop offset="0.78" stop-color="#BECACF"/>
<stop offset="1" stop-color="#A6B7BD"/>
</radialGradient>
<radialGradient id="paint1_radial_415_3" cx="0" cy="0" r="1" gradientUnits="userSpaceOnUse" gradientTransform="translate(80.83 49.17) scale(40.25 40.25)">
<stop stop-color="#56647C"/>
<stop offset="1" stop-color="#56647C" stop-opacity="0"/>
</radialGradient>
<radialGradient id="paint2_radial_415_3" cx="0" cy="0" r="1" gradientUnits="userSpaceOnUse" gradientTransform="translate(147.4 4118.42) scale(3220 3218.74)">
<stop stop-color="#56647C"/>
<stop offset="1" stop-color="#56647C" stop-opacity="0"/>
</radialGradient>
<linearGradient id="paint3_linear_415_3" x1="57.05" y1="80" x2="57.05" y2="20.28" gradientUnits="userSpaceOnUse">
<stop offset="0.16" stop-color="white"/>
<stop offset="1" stop-color="#8BA9B3"/>
</linearGradient>
<linearGradient id="paint4_linear_415_3" x1="33.1" y1="40.03" x2="54.1" y2="40.03" gradientUnits="userSpaceOnUse">
<stop stop-color="#010101" stop-opacity="0"/>
<stop offset="1" stop-color="#010101"/>
</linearGradient>
<linearGradient id="paint5_linear_415_3" x1="57.05" y1="80" x2="57.05" y2="20.28" gradientUnits="userSpaceOnUse">
<stop stop-color="white"/>
<stop offset="0.51" stop-color="white" stop-opacity="0"/>
</linearGradient>
<linearGradient id="paint6_linear_415_3" x1="38.78" y1="80" x2="38.78" y2="30.91" gradientUnits="userSpaceOnUse">
<stop offset="0.01" stop-color="#4CBA74"/>
<stop offset="1" stop-color="#1A884F"/>
</linearGradient>
<linearGradient id="paint7_linear_415_3" x1="3.05" y1="54.42" x2="28.31" y2="54.42" gradientUnits="userSpaceOnUse">
<stop stop-color="#1A884F"/>
<stop offset="1" stop-color="#22A660"/>
</linearGradient>
<linearGradient id="paint8_linear_415_3" x1="51.97" y1="44.27" x2="81" y2="44.27" gradientUnits="userSpaceOnUse">
<stop stop-color="white"/>
<stop offset="1" stop-color="white" stop-opacity="0"/>
</linearGradient>
<linearGradient id="paint9_linear_415_3" x1="1211.99" y1="2753.45" x2="3665.71" y2="2753.45" gradientUnits="userSpaceOnUse">
<stop stop-color="white"/>
<stop offset="1" stop-color="white" stop-opacity="0"/>
</linearGradient>
<clipPath id="clip0_415_3">
<rect width="394" height="80" fill="white"/>
</clipPath>
</defs>
</svg>
